build/assets/images/proyectos/logos/logo-elcorteingles.svg

<svg width="200" height="200" viewBox="0 0 200 200" fill="none" xmlns="http://www.w3.org/2000/svg">
<rect width="200" height="200" fill="white"/>
<path fill-rule="evenodd" clip-rule="evenodd" d="M33.7225 103.345C30.8961 105.051 27.6697 105.318 26.5232 103.185C36.4689 103.878 31.9093 91.159 24.95 96.1985C23.6701 91.8523 27.8031 88.3059 32.9759 90.7324L33.0559 85.8795C26.5232 82.9198 15.6975 88.3326 21.8036 100.305C20.1771 108.677 29.1363 111.61 35.9623 107.158C37.1355 108.464 40.1752 109.451 43.055 107.584L43.1083 103.878C41.4818 105.238 38.7087 104.918 39.5353 103.904C48.0412 85.6395 30.9761 84.9196 33.7225 103.345ZM27.5631 100.278C27.0298 100.278 26.6299 99.8515 26.6299 99.3183C26.6299 98.785 27.0832 98.385 27.5898 98.385C28.1231 98.385 28.523 98.8116 28.523 99.3449C28.523 99.8782 28.0964 100.278 27.5631 100.278Z" fill="black"/>
<path d="M36.8689 97.7984C36.6822 99.185 36.8689 100.358 37.2688 100.412C37.6955 100.465 38.1754 99.3983 38.3621 98.0117C38.5487 96.6252 38.3621 95.452 37.9621 95.3986C37.5621 95.3453 37.0822 96.4119 36.8689 97.7984Z" fill="black"/>
<path fill-rule="evenodd" clip-rule="evenodd" d="M62.5997 106.811C42.1216 119.53 37.2154 83.2132 59.9867 86.7329L59.88 91.0791C43.5882 86.8928 47.6678 112.464 60.1466 103.105C59.2934 98.7851 64.8129 97.2919 64.9462 100.332C64.8395 101.771 64.9195 104.171 66.6794 104.278C68.3859 104.411 69.5324 102.438 67.6393 102.171C60.3333 99.7183 68.5992 88.7593 72.9188 97.7718C74.7853 97.7985 76.4118 98.3851 77.4784 99.9583C77.6117 99.185 79.2115 98.3051 80.4381 98.6251L80.3848 102.465C79.1582 102.518 78.1716 103.078 78.1983 104.438L78.145 108.304L74.7586 108.251L74.8119 104.545C74.8386 103.505 74.1187 102.811 72.5722 102.811C72.5188 105.931 67.7193 110.037 62.5997 106.811ZM68.8393 99.1317C68.4393 99.105 68.146 98.785 68.146 98.4117C68.146 98.0118 68.466 97.6918 68.8659 97.7185C69.2659 97.7451 69.5592 98.0651 69.5592 98.4384C69.5592 98.8384 69.2392 99.1317 68.8393 99.1317Z" fill="black"/>
<path fill-rule="evenodd" clip-rule="evenodd" d="M82.8913 98.8117L83.5579 90.3858L87.2909 90.3591L86.4643 99.2916L87.6109 99.3183C93.5837 87.6127 104.889 98.8917 92.3838 104.091C94.0103 106.358 96.4901 105.424 98.4899 104.038L98.4099 108.357C95.9034 110.784 89.5574 110.571 87.7175 104.918C87.1309 103.291 86.1177 103.638 86.1443 104.171L86.0644 108.837L82.3314 108.784L82.438 102.625L81.5581 102.571L81.6114 98.785L82.8913 98.8117ZM91.877 100.518C91.5571 100.305 91.6904 99.5849 92.1703 98.9183C92.6236 98.2517 93.2902 97.9051 93.6102 98.1451C93.9302 98.3584 93.7969 99.0783 93.3169 99.7449C92.837 100.412 92.197 100.758 91.877 100.518Z" fill="black"/>
<path fill-rule="evenodd" clip-rule="evenodd" d="M106.676 97.0518L105.662 81.0267L109.662 81L110.595 95.132C112.515 94.9454 115.661 95.452 117.155 98.945C118.888 96.6519 125.314 95.292 125.874 103.851L125.794 108.704L121.474 108.624L121.554 103.691C121.554 100.998 118.461 100.945 118.381 103.558L118.275 109.637L114.195 109.584L113.928 102.331C113.635 100.092 110.195 98.7317 110.995 101.905C111 101.955 111.008 102.027 111.018 102.118C111.269 104.389 112.863 118.804 106.249 119.316C99.9296 118.916 100.676 102.891 106.676 97.0518ZM106.516 112.917C106.116 112.89 105.849 110.944 105.982 108.571C106.089 106.198 106.542 104.305 106.969 104.305C107.396 104.331 107.636 106.278 107.502 108.651C107.369 111.024 106.942 112.944 106.516 112.917Z" fill="black"/>
<path d="M134.3 113.584C134.247 114.144 134.593 114.65 135.073 114.677C135.553 114.73 135.98 114.304 136.033 113.717C136.086 113.157 135.74 112.65 135.26 112.597C134.78 112.57 134.353 112.997 134.3 113.584Z" fill="black"/>
<path fill-rule="evenodd" clip-rule="evenodd" d="M134.407 118.916C139.553 119.396 140.326 114.304 140.006 111.264L144.752 107.984C146.325 111.051 153.205 110.757 156.458 108.784C157.818 109.877 161.311 109.397 162.404 108.491L172.136 102.705C175.069 100.945 175.816 103.771 174.883 104.758C173.443 106.198 170.697 106.998 170.057 107.131L169.977 111.45C180.962 111.077 183.229 97.8251 175.229 97.8518C172.652 97.6423 169.061 99.8279 165.846 101.785C163.741 103.066 161.797 104.25 160.404 104.598C164.537 94.9987 148.032 94.3054 151.818 106.198C150.112 106.944 148.619 106.331 148.005 105.398C151.738 100.598 153.338 92.9189 147.285 91.8257C143.606 91.1857 139.793 97.5318 142.513 105.211C141.686 105.558 140.033 106.064 140.033 106.064L140.113 100.465L136.06 100.412C134.94 103.398 131.927 104.918 131.394 104.331C130.78 102.198 133.633 99.9316 139.099 99.6649L139.179 95.3987C132.087 95.6386 127.447 99.2916 126.674 103.478C126.407 109.611 132.007 109.317 135.473 106.891L135.446 108.251C128.78 110.704 128.834 118.357 134.407 118.916ZM145.552 98.7584C145.339 100.065 145.499 101.185 145.899 101.238C146.299 101.318 146.779 100.305 146.992 98.9984C147.205 97.6918 147.045 96.5719 146.645 96.5186C146.245 96.4386 145.765 97.4518 145.552 98.7584ZM156.378 104.118C155.818 104.118 155.391 103.425 155.391 102.571C155.418 101.718 155.871 101.052 156.431 101.052C156.991 101.052 157.418 101.745 157.418 102.598C157.391 103.451 156.938 104.118 156.378 104.118Z" fill="black"/>
<path d="M169.337 89.8792L171.416 93.4788L163.071 98.6783L160.484 95.3986L169.337 89.8792Z" fill="black"/>
</svg>

<svg width="200" height="200" fill="none" xmlns="http://www.w3.org/2000/svg"><path fill="#fff" d="M0 0h200v200H0z"/><path fill-rule="evenodd" clip-rule="evenodd" d="M33.722 103.345c-2.826 1.706-6.052 1.973-7.199-.16 9.946.693 5.386-12.026-1.573-6.987-1.28-4.346 2.853-7.892 8.026-5.466l.08-4.853c-6.533-2.96-17.358 2.454-11.252 14.426-1.627 8.372 7.332 11.305 14.158 6.853 1.173 1.306 4.213 2.293 7.093.426l.053-3.706c-1.626 1.36-4.4 1.04-3.573.026 8.506-18.264-8.559-18.984-5.813-.559zm-6.159-3.067c-.533 0-.933-.427-.933-.96 0-.533.453-.933.96-.933.533 0 .933.427.933.96 0 .533-.427.933-.96.933z" fill="#000"/><path d="M36.869 97.798c-.187 1.387 0 2.56.4 2.614.427.053.906-1.014 1.093-2.4.187-1.387 0-2.56-.4-2.613-.4-.054-.88 1.013-1.093 2.4z" fill="#000"/><path fill-rule="evenodd" clip-rule="evenodd" d="M62.6 106.811c-20.478 12.719-25.385-23.598-2.613-20.078l-.107 4.346c-16.292-4.186-12.212 21.385.267 12.026-.854-4.32 4.666-5.813 4.8-2.773-.108 1.439-.028 3.839 1.732 3.946 1.707.133 2.853-1.84.96-2.107-7.306-2.453.96-13.412 5.28-4.4 1.866.028 3.493.614 4.56 2.187.133-.773 1.733-1.653 2.96-1.333l-.054 3.84c-1.227.053-2.213.613-2.187 1.973l-.053 3.866-3.386-.053.053-3.706c.027-1.04-.693-1.734-2.24-1.734-.053 3.12-4.853 7.226-9.972 4zm6.24-7.68a.729.729 0 01-.694-.72c0-.4.32-.72.72-.692.4.026.693.346.693.72 0 .4-.32.693-.72.693zm14.051-.319l.667-8.426 3.733-.027-.827 8.933 1.147.026c5.973-11.705 17.278-.426 4.773 4.773 1.626 2.267 4.106 1.333 6.106-.053l-.08 4.319c-2.507 2.427-8.853 2.214-10.692-3.439-.587-1.627-1.6-1.28-1.574-.747l-.08 4.666-3.733-.053.107-6.159-.88-.054.053-3.786 1.28.027zm8.986 1.706c-.32-.213-.187-.933.293-1.6.454-.666 1.12-1.013 1.44-.773.32.213.187.933-.293 1.6s-1.12 1.013-1.44.773zm14.799-3.466l-1.014-16.025 4-.027.933 14.132c1.92-.187 5.066.32 6.56 3.813 1.733-2.293 8.159-3.653 8.719 4.906l-.08 4.853-4.32-.08.08-4.933c0-2.693-3.093-2.746-3.173-.133l-.106 6.079-4.08-.053-.267-7.253c-.293-2.239-3.733-3.6-2.933-.426l.023.213c.251 2.271 1.845 16.686-4.769 17.198-6.32-.4-5.573-16.425.427-22.264zm-.16 15.865c-.4-.027-.667-1.973-.534-4.346.107-2.373.56-4.266.987-4.266.427.026.667 1.973.533 4.346-.133 2.373-.56 4.293-.986 4.266z" fill="#000"/><path d="M134.3 113.584c-.053.56.293 1.066.773 1.093.48.053.907-.373.96-.96.053-.56-.293-1.067-.773-1.12-.48-.027-.907.4-.96.987z" fill="#000"/><path fill-rule="evenodd" clip-rule="evenodd" d="M134.407 118.916c5.146.48 5.919-4.612 5.599-7.652l4.746-3.28c1.573 3.067 8.453 2.773 11.706.8 1.36 1.093 4.853.613 5.946-.293l9.732-5.786c2.933-1.76 3.68 1.066 2.747 2.053-1.44 1.44-4.186 2.24-4.826 2.373l-.08 4.319c10.985-.373 13.252-13.625 5.252-13.598-2.577-.21-6.168 1.976-9.383 3.933-2.105 1.281-4.049 2.465-5.442 2.813 4.133-9.6-12.372-10.293-8.586 1.6-1.706.746-3.199.133-3.813-.8 3.733-4.8 5.333-12.48-.72-13.572-3.679-.64-7.492 5.706-4.772 13.385-.827.347-2.48.853-2.48.853l.08-5.599-4.053-.053c-1.12 2.986-4.133 4.506-4.666 3.919-.614-2.133 2.239-4.4 7.705-4.666l.08-4.266c-7.092.24-11.732 3.893-12.505 8.079-.267 6.133 5.333 5.839 8.799 3.413l-.027 1.36c-6.666 2.453-6.612 10.106-1.039 10.665zm11.145-20.158c-.213 1.307-.053 2.427.347 2.48.4.08.88-.933 1.093-2.24.213-1.306.053-2.426-.347-2.48-.4-.08-.88.934-1.093 2.24zm10.826 5.36c-.56 0-.987-.693-.987-1.547.027-.853.48-1.519 1.04-1.519s.987.693.987 1.546c-.027.853-.48 1.52-1.04 1.52z" fill="#000"/><path d="M169.337 89.88l2.079 3.599-8.345 5.2-2.587-3.28 8.853-5.52z" fill="#000"/></svg>
